public/assets/routes_avatar/taxReturn.svg

<?xml version="1.0" encoding="UTF-8"?>
<svg width="60px" height="60px" viewBox="0 0 60 60" version="1.1" xmlns="http://www.w3.org/2000/svg" xmlns:xlink="http://www.w3.org/1999/xlink">
    <!-- Generator: Sketch 49.3 (51167) - http://www.bohemiancoding.com/sketch -->
    <title>业务报表-纳税申报表</title>
    <desc>Created with Sketch.</desc>
    <defs>
        <rect id="path-1" x="3.875" y="0" width="24.21875" height="26.1818182" rx="1.92"></rect>
        <rect id="path-2" x="0" y="3.87878788" width="24.21875" height="26.1818182" rx="1.92"></rect>
    </defs>
    <g id="icon" stroke="none" stroke-width="1" fill="none" fill-rule="evenodd">
        <g id="业务报表-纳税申报表">
            <circle id="Oval-Copy" fill="#07D3CF" cx="30" cy="30" r="30"></circle>
            <g id="Group-9" transform="translate(15.000000, 14.000000)">
                <g id="Rectangle-15">
                    <use fill="#07D3CF" fill-rule="evenodd" xlink:href="#path-1"></use>
                    <rect stroke="#FFFFFF" stroke-width="1.5" x="4.625" y="0.75" width="22.71875" height="24.6818182" rx="1.92"></rect>
                </g>
                <g id="Rectangle-15-Copy">
                    <use fill="#07D3CF" fill-rule="evenodd" xlink:href="#path-2"></use>
                    <rect stroke="#FFFFFF" stroke-width="1.5" x="0.75" y="4.62878788" width="22.71875" height="24.6818182" rx="1.92"></rect>
                </g>
                <rect id="Rectangle-16" fill="#FFFFFF" x="3.875" y="8.72727273" width="14" height="1.5" rx="0.75"></rect>
                <rect id="Rectangle-16-Copy" fill="#FFFFFF" x="3.875" y="13.5757576" width="14" height="1.5" rx="0.75"></rect>
                <rect id="Rectangle-16-Copy-3" fill="#FFFFFF" x="3.875" y="18.4242424" width="14" height="1.5" rx="0.75"></rect>
                <rect id="Rectangle-16-Copy-2" fill="#FFFFFF" x="3.875" y="23.2727273" width="10" height="1.5" rx="0.75"></rect>
                <ellipse id="Oval-9" fill="#07D3CF" cx="23.734375" cy="24.7272727" rx="7.265625" ry="7.27272727"></ellipse>
                <ellipse id="Oval-9" stroke="#FFFFFF" stroke-width="1.44" fill="#07D3CF" cx="24.21875" cy="25.2121212" rx="5.8125" ry="5.81818182"></ellipse>
                <path d="M23.8909774,23.6132079 L24.5402793,23.6132079 C24.3904404,23.2406455 24.2281149,22.9115488 24.0533029,22.6197083 L24.577739,22.3713334 C24.7587943,22.681802 24.9336063,23.0295269 25.1084184,23.4145079 L24.708848,23.6132079 L25.3706364,23.6132079 C25.5766649,23.2033893 25.7577202,22.7687332 25.9075591,22.3030303 L26.5318878,22.5265677 C26.3820489,22.9239675 26.2197234,23.2903205 26.0386681,23.6132079 L26.6942132,23.6132079 L26.6942132,25.7554413 L26.0386681,25.7554413 L26.0386681,27.2456906 C26.0386681,27.3574593 26.0761278,27.4195531 26.1572905,27.4195531 L26.3695623,27.4195531 C26.4195086,27.4195531 26.4632116,27.3822968 26.4881847,27.3077844 C26.5194012,27.2208531 26.538131,26.9724783 26.5506176,26.5626597 L27.125,26.7365221 C27.081297,27.35125 27.0126208,27.7176029 26.9127282,27.835581 C26.8128357,27.9473497 26.6692401,28.003234 26.4756982,28.003234 L25.9637487,28.003234 C25.6141246,28.003234 25.4393126,27.7921154 25.4393126,27.3760874 L25.4393126,25.7554413 L25.0459855,25.7554413 C24.9773093,26.8420814 24.5902256,27.6306717 23.8909774,28.1212121 L23.5413534,27.5561592 C24.078276,27.202225 24.3841971,26.5999159 24.44663,25.7554413 L23.8909774,25.7554413 L23.8909774,23.6132079 Z M26.101101,25.184179 L26.101101,24.1844701 L24.490333,24.1844701 L24.490333,25.184179 L26.101101,25.184179 Z M21.4810687,23.948514 L22.3176692,23.948514 L22.3176692,23.2530643 C22.0804243,23.2841111 21.8431794,23.315158 21.5934479,23.3399955 L21.4623389,22.7438957 C22.20529,22.681802 22.8733217,22.5638239 23.4601907,22.3837521 L23.6911923,22.9798519 C23.4539474,23.0419456 23.2042159,23.1040393 22.9419979,23.1537143 L22.9419979,23.948514 L23.6474893,23.948514 L23.6474893,24.5756606 L22.9419979,24.5756606 L22.9419979,24.8612917 C23.2229458,25.1469228 23.5038937,25.4573914 23.7910849,25.7989069 L23.4227309,26.351541 C23.2354323,26.0286537 23.0793502,25.76786 22.9419979,25.5567414 L22.9419979,28.0404903 L22.3176692,28.0404903 L22.3176692,25.6250445 C22.1241273,26.0969568 21.8868824,26.5254034 21.6059345,26.9228033 L21.3125,26.1652599 C21.7370435,25.6933476 22.0554511,25.1655509 22.2552363,24.5756606 L21.4810687,24.5756606 L21.4810687,23.948514 Z" id="税" fill="#FFFFFF"></path>
            </g>
        </g>
    </g>
</svg>

<svg width="60" height="60" xmlns="http://www.w3.org/2000/svg" xmlns:xlink="http://www.w3.org/1999/xlink"><defs><rect id="a" x="3.875" y="0" width="24.219" height="26.182" rx="1.92"/><rect id="b" x="0" y="3.879" width="24.219" height="26.182" rx="1.92"/></defs><g fill="none" fill-rule="evenodd"><circle fill="#07D3CF" cx="30" cy="30" r="30"/><g transform="translate(15 14)"><use fill="#07D3CF" xlink:href="#a"/><rect stroke="#FFF" stroke-width="1.5" x="4.625" y=".75" width="22.719" height="24.682" rx="1.92"/><use fill="#07D3CF" xlink:href="#b"/><rect stroke="#FFF" stroke-width="1.5" x=".75" y="4.629" width="22.719" height="24.682" rx="1.92"/><rect fill="#FFF" x="3.875" y="8.727" width="14" height="1.5" rx=".75"/><rect fill="#FFF" x="3.875" y="13.576" width="14" height="1.5" rx=".75"/><rect fill="#FFF" x="3.875" y="18.424" width="14" height="1.5" rx=".75"/><rect fill="#FFF" x="3.875" y="23.273" width="10" height="1.5" rx=".75"/><ellipse fill="#07D3CF" cx="23.734" cy="24.727" rx="7.266" ry="7.273"/><ellipse stroke="#FFF" stroke-width="1.44" fill="#07D3CF" cx="24.219" cy="25.212" rx="5.813" ry="5.818"/><path d="M23.891 23.613h.65a7.04 7.04 0 0 0-.488-.993l.525-.249c.18.31.356.659.53 1.044l-.4.198h.663c.206-.41.387-.844.537-1.31l.624.224c-.15.397-.312.763-.493 1.086h.655v2.142h-.655v1.49c0 .112.037.175.118.175h.213c.05 0 .093-.038.118-.112.031-.087.05-.336.063-.745l.574.174c-.044.614-.112.98-.212 1.099-.1.111-.244.167-.437.167h-.512c-.35 0-.525-.21-.525-.627v-1.62h-.393c-.069 1.086-.456 1.875-1.155 2.365l-.35-.565c.537-.354.843-.956.906-1.8h-.556v-2.143zm2.21 1.571v-1h-1.61v1h1.61zm-4.62-1.235h.837v-.696c-.238.031-.475.062-.725.087l-.13-.596a9.557 9.557 0 0 0 1.997-.36l.231.596c-.237.062-.487.124-.749.174v.795h.705v.627h-.705v.285c.28.286.562.596.85.938l-.37.553a18.856 18.856 0 0 0-.48-.795v2.483h-.624v-2.415c-.194.472-.431.9-.712 1.298l-.294-.758c.425-.472.743-1 .943-1.59h-.774v-.626z" fill="#FFF"/></g></g></svg>
